svgs/sharp-regular/file-contract.svg

<svg xmlns="http://www.w3.org/2000/svg" viewBox="0 0 384 512"><!--! Font Awesome Pro 6.6.0 by @fontawesome - https://fontawesome.com License - https://fontawesome.com/license (Commercial License) Copyright 2024 Fonticons, Inc. --><path d="M48 48l176 0 0 112 112 0 0 304L48 464 48 48zM256 0L48 0 0 0 0 48 0 464l0 48 48 0 288 0 48 0 0-48 0-336L256 0zM96 96L80 96l0 32 16 0 80 0 16 0 0-32-16 0L96 96zm0 64l-16 0 0 32 16 0 80 0 16 0 0-32-16 0-80 0zm56 144l-11.9 0-3.4 11.4L116.1 384 96 384l-16 0 0 32 16 0 32 0 11.9 0 3.4-11.4L160 349l16.7 55.6 3.4 11.4 11.9 0 8 0 9.9 0 4.4-8.8L225.9 384l4.2 0 11.6 23.2 4.4 8.8 9.9 0 32 0 16 0 0-32-16 0-22.1 0-11.6-23.2-4.4-8.8-9.9 0-24 0-9.9 0-4.4 8.8-3 5.9-15.4-51.4L179.9 304 168 304l-16 0z"/></svg>

<svg xmlns="http://www.w3.org/2000/svg" viewBox="0 0 384 512"><!--! Font Awesome Pro 6.4.0 by @fontawesome - https://fontawesome.com License - https://fontawesome.com/license (Commercial License) Copyright 2023 Fonticons, Inc. --><path d="M48 48H224V160H336V464H48V48zM256 0H48 0V48 464v48H48 336h48V464 128L256 0zM96 96H80v32H96h80 16V96H176 96zm0 64H80v32H96h80 16V160H176 96zm56 144H140.1l-3.4 11.4L116.1 384H96 80v32H96h32 11.9l3.4-11.4L160 349l16.7 55.6 3.4 11.4H192h8 9.9l4.4-8.8L225.9 384h4.2l11.6 23.2 4.4 8.8H256h32 16V384H288 265.9l-11.6-23.2-4.4-8.8H240 216h-9.9l-4.4 8.8-3 5.9-15.4-51.4L179.9 304H168 152z"/></svg>
